resources/svg/regular/swim.svg

<svg xmlns="http://www.w3.org/2000/svg" fill="currentColor" stroke="none" viewBox="0 0 24 24"><circle cx="19.003" cy="6.002" r="2.002"/><path d="M18.875 13.219c-.567.453-.978.781-1.878.781-.899 0-1.288-.311-1.876-.781-.68-.543-1.525-1.219-3.127-1.219-1.601 0-2.445.676-3.124 1.219-.588.47-.975.781-1.875.781-.898 0-1.286-.311-1.873-.78C4.443 12.676 3.6 12 2 12v2c.897 0 1.285.311 1.872.78.679.544 1.523 1.22 3.123 1.22s2.446-.676 3.125-1.22c.587-.47.976-.78 1.874-.78.9 0 1.311.328 1.878.781.679.543 1.524 1.219 3.125 1.219 1.602 0 2.447-.676 3.127-1.219.588-.47.977-.781 1.876-.781v-2c-1.601 0-2.446.676-3.125 1.219zM16.997 19c-.899 0-1.288-.311-1.876-.781-.68-.543-1.525-1.219-3.127-1.219-1.601 0-2.445.676-3.124 1.219-.588.47-.975.781-1.875.781-.898 0-1.286-.311-1.873-.78C4.443 17.676 3.6 17 2 17v2c.897 0 1.285.311 1.872.78.679.544 1.523 1.22 3.123 1.22s2.446-.676 3.125-1.22c.587-.47.976-.78 1.874-.78.9 0 1.311.328 1.878.781.679.543 1.524 1.219 3.125 1.219 1.602 0 2.447-.676 3.127-1.219.588-.47.977-.781 1.876-.781v-2c-1.601 0-2.446.676-3.125 1.219-.567.453-.978.781-1.878.781zM11 5.419l2.104 2.104-2.057 2.57c.286-.056.596-.093.947-.093 1.602 0 2.447.676 3.127 1.219.588.47.977.781 1.876.781.9 0 1.311-.328 1.878-.781.132-.105.274-.217.423-.326l-2.096-2.09.005-.005-5.5-5.5a.999.999 0 0 0-1.414 0l-4 4 1.414 1.414L11 5.419z"/></svg>

<svg xmlns="http://www.w3.org/2000/svg" fill="currentColor" stroke="none" viewBox="0 0 24 24"><circle cx="19.003" cy="6.002" r="2.002"/><path d="M18.875 13.219C18.308 13.672 17.897 14 16.997 14c-.899 0-1.288-.311-1.876-.781C14.441 12.676 13.596 12 11.994 12c-1.601 0-2.445.676-3.124 1.219C8.282 13.689 7.895 14 6.995 14c-.898 0-1.286-.311-1.873-.78C4.443 12.676 3.6 12 2 12v2c.897 0 1.285.311 1.872.78C4.551 15.324 5.395 16 6.995 16s2.446-.676 3.125-1.22c.587-.47.976-.78 1.874-.78.9 0 1.311.328 1.878.781C14.551 15.324 15.396 16 16.997 16c1.602 0 2.447-.676 3.127-1.219C20.712 14.311 21.101 14 22 14v-2C20.399 12 19.554 12.676 18.875 13.219zM16.997 19c-.899 0-1.288-.311-1.876-.781C14.441 17.676 13.596 17 11.994 17c-1.601 0-2.445.676-3.124 1.219C8.282 18.689 7.895 19 6.995 19c-.898 0-1.286-.311-1.873-.78C4.443 17.676 3.6 17 2 17v2c.897 0 1.285.311 1.872.78C4.551 20.324 5.395 21 6.995 21s2.446-.676 3.125-1.22c.587-.47.976-.78 1.874-.78.9 0 1.311.328 1.878.781C14.551 20.324 15.396 21 16.997 21c1.602 0 2.447-.676 3.127-1.219C20.712 19.311 21.101 19 22 19v-2c-1.601 0-2.446.676-3.125 1.219C18.308 18.672 17.897 19 16.997 19zM11 5.419l2.104 2.104-2.057 2.57C11.333 10.037 11.643 10 11.994 10c1.602 0 2.447.676 3.127 1.219C15.709 11.689 16.098 12 16.997 12c.9 0 1.311-.328 1.878-.781.132-.105.274-.217.423-.326l-2.096-2.09.005-.005-5.5-5.5c-.391-.391-1.023-.391-1.414 0l-4 4 1.414 1.414L11 5.419z"/></svg>
